X: 27651
T: Moran's Return
R: barndance
M: 4/4
K: Fmajor
Ac|:d2G2 G2cB|A2F2 F2fg|a>gfe fdcA|G2GA B2Bc|
d2G2 G2cB|A2F2 F2fg|a>gfe fdcA|1 G2F2 F2Ac:|2 G2F2 F2AG||
F2fe f3g|agfe d2cA|d2g2 g3a|bagf g2fg|
a2ba g2ag|f>gfd c2fg|a>gfe fdcA|1 G2F2 F2AG:|2 G2F2 HF2||

